svgs/google_pay.svg

<svg width="192" height="192" viewBox="0 0 192 192" fill="none" xmlns="http://www.w3.org/2000/svg">
<path fill-rule="evenodd" clip-rule="evenodd" d="M121.291 73.2465L127.119 76.6114C131.785 79.3052 133.384 85.2713 130.69 89.9371L99.5683 143.841C94.302 152.963 82.6385 156.088 73.5171 150.822C64.3957 145.555 61.2705 133.892 66.5367 124.77L67.2331 123.564L56.8408 117.564L56.1444 118.77C47.5645 133.631 52.6562 152.634 67.5171 161.214C82.378 169.794 101.381 164.702 109.961 149.841L141.082 95.9371C147.09 85.5318 143.524 72.2266 133.119 66.2191L127.678 63.0778L121.291 73.2465Z" fill="black"/>
<path d="M83.4088 83.5473C87.7594 76.0117 85.1775 66.3761 77.642 62.0254L63.5433 53.8855C56.8815 50.0393 48.3631 52.3218 44.517 58.9836L26.4103 90.3453C16.7949 107 22.5011 128.296 39.1555 137.911L70.5172 156.018C58.526 149.095 54.4175 133.762 61.3406 121.77L83.4088 83.5473Z" stroke="black" stroke-width="12"/>
<path fill-rule="evenodd" clip-rule="evenodd" d="M129.143 34.9746C109.619 23.7023 84.6538 30.3918 73.3815 49.916L68.6807 58.058L79.073 64.058L83.7738 55.916C91.7324 42.1313 109.359 37.4083 123.143 45.3669L133.26 51.2079C127.079 53.7178 121.656 58.2287 118.062 64.454L87.6366 117.152C84.9428 121.818 78.9767 123.416 74.3109 120.722L64.7355 115.194L61.7355 120.39L58.7355 125.586L68.3109 131.115C78.7162 137.122 92.0214 133.557 98.0289 123.152L128.454 70.454C133.72 61.3326 145.384 58.2074 154.505 63.4736L160.505 53.0813L129.143 34.9746Z" fill="black"/>
<path fill-rule="evenodd" clip-rule="evenodd" d="M91.0086 123.311L85.8124 120.311L88.8124 115.115L118.062 64.4541C126.642 49.5932 145.644 44.5015 160.505 53.0814C175.366 61.6614 180.458 80.664 171.878 95.5249L149.593 134.124C144.09 143.655 131.902 146.921 122.37 141.418L110.308 134.454L116.308 124.062L128.37 131.026C132.162 133.215 137.011 131.916 139.2 128.124L161.486 89.5249C166.752 80.4035 163.627 68.74 154.505 63.4737C145.384 58.2075 133.72 61.3327 128.454 70.4541L104.428 112.069L99.2317 109.069L91.0086 123.311Z" fill="black"/>
</svg>

<svg width="192" height="192" fill="none" xmlns="http://www.w3.org/2000/svg"><path fill-rule="evenodd" clip-rule="evenodd" d="m121.291 73.246 5.828 3.365c4.666 2.694 6.265 8.66 3.571 13.326l-31.122 53.904c-5.266 9.122-16.93 12.247-26.05 6.981-9.122-5.267-12.248-16.93-6.981-26.052l.696-1.206-10.392-6-.697 1.206c-8.58 14.861-3.488 33.864 11.373 42.444 14.861 8.58 33.864 3.488 42.444-11.373l31.121-53.904c6.008-10.405 2.442-23.71-7.963-29.718l-5.441-3.141-6.387 10.168z" fill="#000"/><path d="M83.409 83.547c4.35-7.535 1.768-17.17-5.767-21.522l-14.099-8.14c-6.661-3.846-15.18-1.563-19.026 5.099L26.41 90.345c-9.615 16.655-3.909 37.951 12.746 47.566l31.361 18.107c-11.991-6.923-16.1-22.256-9.176-34.248l22.068-38.223z" stroke="#000" stroke-width="12"/><path fill-rule="evenodd" clip-rule="evenodd" d="M129.143 34.975c-19.524-11.273-44.49-4.583-55.761 14.941l-4.701 8.142 10.392 6 4.7-8.142c7.96-13.785 25.586-18.508 39.37-10.55l10.117 5.842a30.937 30.937 0 0 0-15.198 13.246l-30.425 52.698c-2.694 4.666-8.66 6.264-13.326 3.57l-9.576-5.528-3 5.196-3 5.196 9.576 5.529c10.405 6.007 23.71 2.442 29.718-7.963l30.425-52.698c5.266-9.121 16.93-12.247 26.051-6.98l6-10.393-31.362-18.106z" fill="#000"/><path fill-rule="evenodd" clip-rule="evenodd" d="m91.009 123.311-5.197-3 3-5.196 29.25-50.66c8.58-14.862 27.582-19.953 42.443-11.374 14.861 8.58 19.953 27.583 11.373 42.444l-22.285 38.599c-5.503 9.531-17.691 12.797-27.223 7.294l-12.062-6.964 6-10.392 12.062 6.964a7.928 7.928 0 0 0 10.83-2.902l22.286-38.6c5.266-9.12 2.141-20.784-6.981-26.05-9.121-5.266-20.785-2.141-26.051 6.98l-24.026 41.615-5.196-3-8.223 14.242z" fill="#000"/></svg>
